svgs/solid/magnifying-glass-dollar.svg

<svg xmlns="http://www.w3.org/2000/svg" viewBox="0 0 512 512"><!--! Font Awesome Pro 6.0.0-alpha3 by @fontawesome - https://fontawesome.com License - https://fontawesome.com/license (Commercial License) --><path d="M500.3 443.7l-119.7-119.7c27.22-40.41 40.65-90.9 33.46-144.7c-12.23-91.55-87.28-166-178.9-177.6c-136.2-17.24-250.7 97.28-233.4 233.4c11.6 91.64 86.07 166.7 177.6 178.9c53.81 7.191 104.3-6.235 144.7-33.46l119.7 119.7c15.62 15.62 40.95 15.62 56.57 .0004C515.9 484.7 515.9 459.3 500.3 443.7zM273.7 253.8C269.8 276.4 252.6 291.3 228 296.1V304c0 11.03-8.953 20-20 20S188 315 188 304V295.2C178.2 293.2 168.4 289.9 159.6 286.8L154.8 285.1C144.4 281.4 138.9 269.9 142.6 259.5C146.2 249.1 157.6 243.7 168.1 247.3l5.062 1.812c8.562 3.094 18.25 6.562 25.91 7.719c16.23 2.5 33.47-.0313 35.17-9.812c1.219-7.094 .4062-10.62-31.8-19.84L196.2 225.4C177.8 219.1 134.5 207.3 142.3 162.2C146.2 139.6 163.5 124.8 188 120V112c0-11.03 8.953-20 20-20S228 100.1 228 112v8.695c6.252 1.273 13.06 3.07 21.47 5.992c10.42 3.625 15.95 15.03 12.33 25.47C258.2 162.6 246.8 168.1 236.3 164.5C228.2 161.7 221.8 159.9 216.8 159.2c-16.11-2.594-33.38 .0313-35.08 9.812c-1 5.812-1.719 10 25.7 18.03l6 1.719C238.9 196 281.5 208.2 273.7 253.8z"/></svg>

<svg xmlns="http://www.w3.org/2000/svg" viewBox="0 0 512 512"><!-- Font Awesome Pro 6.0.0-alpha2 by @fontawesome - https://fontawesome.com License - https://fontawesome.com/license (Commercial License) --><path d="M504.971 448.402L380.623 324.055C402.953 290.902 416 250.977 416 208C416 93.125 322.875 0 208 0S0 93.125 0 208S93.125 416 208 416C250.977 416 290.902 402.953 324.053 380.625L448.402 504.969C457.775 514.344 472.971 514.344 482.344 504.969L504.971 482.344C514.344 472.969 514.344 457.773 504.971 448.402ZM273.656 253.844C269.766 276.375 252.553 291.32 228 296.051V304C228 315.031 219.047 324 208 324S188 315.031 188 304V295.188C178.23 293.172 168.428 289.93 159.641 286.781L154.797 285.062C144.391 281.375 138.922 269.938 142.594 259.531C146.234 249.094 157.609 243.688 168.109 247.312L173.172 249.125C181.734 252.219 191.422 255.687 199.078 256.844C215.312 259.344 232.547 256.812 234.25 247.031C235.469 239.937 234.656 236.406 202.453 227.187L196.188 225.375C177.75 219.969 134.516 207.312 142.344 162.156C146.229 139.641 163.469 124.789 188 120.043V112C188 100.969 196.953 92 208 92S228 100.969 228 112V120.695C234.252 121.969 241.057 123.766 249.469 126.688C259.891 130.312 265.422 141.719 261.797 152.156C258.172 162.562 246.781 168.094 236.344 164.5C228.188 161.656 221.797 159.906 216.828 159.156C200.719 156.562 183.453 159.188 181.75 168.969C180.75 174.781 180.031 178.969 207.453 187L213.453 188.719C238.922 196.031 281.547 208.219 273.656 253.844Z"/></svg>
